X:281
T:score8
L:1/8
Q:1/4=96
M:2/4
I:linebreak $
K:F
 (A,/B,/C/D/ .C)!>!F- | F.G !tenuto!A2 | (A,/B,/C/D/ .C)!>!F- | F.E !tenuto!F2 |$ %4
 (A,/B,/C/D/ .C)!>!F- | F.G !tenuto!A2 | (A,/B,/C/D/ .C)!>!F- | F.E !tenuto!F2 |] %8
